X: 5
T:Avant-Deux de Travers
O:France
F: http://www.youtube.com/watch?v=rapmgtdP1Y0
F: http://www.youtube.com/watch?v=NFshFVMVsUc
F: http://www.youtube.com/watch?v=VXF1vRt0Cxo
M:2/4
L:1/8
Q:1/4=160
K:E
|:B,B, EE |GF/G/ F2|AA GG|FF GE    |
  B,B, EE |GF/G/ F2|AA GG|FF E2    :|
|:BG/B/ BB|ce B2   |AA GG|FE/F/ GE |
  BG/B/ BB|ce B2   |AA GG|FE/F/ E2 :|
